packages/ui-icons/src/Basic/16/Clock_16.svg

<svg xmlns="http://www.w3.org/2000/svg" viewBox="0 0 20 20"><path d="M15 10a5 5 0 0 0-2-4V2H7v4a4.95 4.95 0 0 0 0 8v4h6v-4a5 5 0 0 0 2-4ZM8 3h4v2.42a4.93 4.93 0 0 0-4 0Zm-2 7a4 4 0 1 1 4 4 4 4 0 0 1-4-4Zm6 7H8v-2.43a4.93 4.93 0 0 0 4 0Zm-3.3-5-.7-.73 1.48-1.49V7h1v3.2Z"/></svg>

<svg id="ready" xmlns="http://www.w3.org/2000/svg" viewBox="0 0 20 20"><title>Megaicons_work_16_1.8_cp</title><path d="M15,10a5,5,0,0,0-2-4V2H7V6A4.95,4.95,0,0,0,7,14v4h6V14A5,5,0,0,0,15,10ZM8,3h4V5.42a4.93,4.93,0,0,0-4,0ZM6,10a4,4,0,1,1,4,4A4,4,0,0,1,6,10Zm6,7H8V14.57a4.93,4.93,0,0,0,4,0ZM8.7,12,8,11.27,9.48,9.78V7h1V10.2Z"/></svg>
